X: 12335
T: Falcon Bigney
R: jig
M: 6/8
K: Gmajor
D|G2 G B2 A|GBd gba|aec cde|dBA ABA|G2 G B2 a|GBd gba|
gec deg|dBG G2:|g|b2 g b2 g|afd def|gec ceg|dBa [1Aga|b2 g b2 g|
afd def|gec deg|dBG G2:|2 BA|G2 g B2 a|GBd gbg|gec deg|dBG G2||

